X:28
T:Fisher’s Hornpipe
C: James Fisher
A:JamBuddy 2025
M:4/4
L:1/8
R:Hornpipe
K:D
(3ABc|:"D"dAFA "G"GBAG|"D"FAFA "G"GBAG|"D"FDFD "A7"GEGE|"D"FDFD "A7"EA (3ABc|
"D"dAFA "G"GBAG|"D"FAFA "G"GBAG|"D"FAdA "A7"fedc|1"D"d2f2d2 (3ABc :| 2"D"d2f2 d4|]
cd|:"A7"ecAc ecge|"D"fdAd fdaf|"A"ecAc ecgf|"E7"edcB "A"A2A2|
"G"BGDG BGdB|"D"AFDF AFdA|"G"BdcB "A7"AGFE|1"D"D2F2 D2 cd :| 2"D"D2F2 D4|]


